dist/img/svg/viber-icon.svg

<svg width="130" height="130" viewBox="0 0 130 130" fill="none" xmlns="http://www.w3.org/2000/svg">
<path d="M51.7072 114L55.3052 104.662H53.0372L50.4612 111.844L47.8712 104.662H45.6032L49.2152 114H51.7072ZM57.8556 114V104.662H55.8676V114H57.8556ZM64.4774 114C66.2554 114 67.1934 112.88 67.1934 111.48C67.1934 110.304 66.3954 109.338 65.4014 109.184C66.2834 109.002 67.0114 108.218 67.0114 107.042C67.0114 105.796 66.1014 104.662 64.3234 104.662H59.4094V114H64.4774ZM63.8894 108.4H61.3974V106.37H63.8894C64.5614 106.37 64.9814 106.804 64.9814 107.392C64.9814 107.98 64.5614 108.4 63.8894 108.4ZM63.9594 112.278H61.3974V110.108H63.9594C64.7434 110.108 65.1634 110.612 65.1634 111.2C65.1634 111.872 64.7154 112.278 63.9594 112.278ZM75.0006 114V112.25H70.3806V110.136H74.9026V108.386H70.3806V106.412H75.0006V104.662H68.3926V114H75.0006ZM83.8147 114L81.7147 110.444C82.7227 110.206 83.7587 109.324 83.7587 107.672C83.7587 105.936 82.5687 104.662 80.6227 104.662H76.2547V114H78.2427V110.682H79.6987L81.5327 114H83.8147ZM80.3287 108.932H78.2427V106.412H80.3287C81.1267 106.412 81.7287 106.888 81.7287 107.672C81.7287 108.456 81.1267 108.932 80.3287 108.932Z" fill="white"/>
<g opacity="0.5" filter="url(#filter0_f)">
<circle cx="65" cy="65" r="35" fill="#9B51E0"/>
</g>
<circle cx="65" cy="50" r="40" fill="#9B51E0"/>
<path d="M76.0156 37.6797C77.3047 38.8125 78.2227 40.6094 78.7695 43.0703C79.3164 45.4922 79.375 48.5 78.9453 52.0938C78.8281 52.9922 78.6328 53.8125 78.3594 54.5547C78.125 55.2969 77.8516 55.9414 77.5391 56.4883C77.2266 56.9961 76.8555 57.4648 76.4258 57.8945C76.0352 58.3242 75.6445 58.6758 75.2539 58.9492C74.9023 59.1836 74.5117 59.3984 74.082 59.5938C73.6523 59.7891 73.3008 59.9453 73.0273 60.0625C72.7539 60.1406 72.4414 60.2188 72.0898 60.2969C71.7773 60.375 71.6016 60.4141 71.5625 60.4141C71.2891 60.5312 70.8203 60.6484 70.1562 60.7656C69.4922 60.8828 68.4375 61 66.9922 61.1172C65.5469 61.2734 64.1016 61.2734 62.6562 61.1172C61.8359 62.0156 61.25 62.6602 60.8984 63.0508C60.7812 63.168 60.625 63.3242 60.4297 63.5195C60.2344 63.7539 60.0977 63.9102 60.0195 63.9883C59.9414 64.0664 59.8047 64.1836 59.6094 64.3398C59.4531 64.5352 59.3359 64.6328 59.2578 64.6328C59.1797 64.6328 59.043 64.6719 58.8477 64.75C58.6523 64.8281 58.5156 64.8086 58.4375 64.6914C58.2812 64.6523 58.1445 64.5742 58.0273 64.457C57.9102 64.3398 57.832 64.2031 57.793 64.0469C57.7539 63.9297 57.7148 63.793 57.6758 63.6367C57.6758 63.5195 57.6758 63.4219 57.6758 63.3438L57.6172 63.2266L57.6758 60.1797H57.6172C56.7969 59.9453 56.0352 59.6328 55.332 59.2422C54.6289 58.8125 54.043 58.3438 53.5742 57.8359C53.1445 57.3281 52.7344 56.7812 52.3438 56.1953C51.9922 55.5703 51.7188 54.9453 51.5234 54.3203C51.3672 53.6953 51.2109 53.0508 51.0547 52.3867C50.9375 51.7227 50.8594 51.0781 50.8203 50.4531C50.8203 49.8281 50.8008 49.2227 50.7617 48.6367C50.7617 48.0508 50.7812 47.5234 50.8203 47.0547C50.8984 42.7969 51.875 39.7305 53.75 37.8555C54.9219 36.8008 56.4844 36.0195 58.4375 35.5117C60.3906 35.0039 62.0703 34.75 63.4766 34.75H65.5273C67.5586 34.7891 69.3945 35.0234 71.0352 35.4531C72.7148 35.8438 73.8672 36.2344 74.4922 36.625C75.1172 36.9766 75.625 37.3281 76.0156 37.6797ZM76.8359 51.5664C77.2266 48.5195 77.1875 45.9414 76.7188 43.832C76.2891 41.6836 75.5273 40.1406 74.4336 39.2031C74.1602 38.9297 73.7305 38.6367 73.1445 38.3242C72.5586 38.0117 71.543 37.6992 70.0977 37.3867C68.6914 37.0742 67.1289 36.8984 65.4102 36.8594C65.2539 36.8594 65 36.8594 64.6484 36.8594C64.3359 36.8594 63.7305 36.8984 62.832 36.9766C61.9727 37.0156 61.1328 37.1133 60.3125 37.2695C59.5312 37.3867 58.6719 37.6406 57.7344 38.0312C56.7969 38.3828 56.0352 38.8516 55.4492 39.4375C53.8477 41 53.0078 43.5586 52.9297 47.1133C52.9688 47.8164 52.9688 48.5781 52.9297 49.3984C52.8906 50.1797 52.9688 51.0391 53.1641 51.9766C53.3594 52.875 53.6133 53.7344 53.9258 54.5547C54.2773 55.3359 54.8438 56.0781 55.625 56.7812C56.4062 57.4453 57.3633 57.9336 58.4961 58.2461C58.457 61.332 58.4375 63.0117 58.4375 63.2852C58.4375 63.5586 58.5156 63.7148 58.6719 63.7539C58.8281 63.832 58.9844 63.7734 59.1406 63.5781L63.125 58.9492C64.3359 59.0273 65.5664 59.0273 66.8164 58.9492C68.0664 58.832 68.9844 58.7148 69.5703 58.5977C70.1562 58.4805 70.5664 58.3828 70.8008 58.3047C70.8398 58.3047 71.0156 58.2656 71.3281 58.1875C71.6797 58.1094 71.9727 58.0312 72.207 57.9531C72.4805 57.8359 72.832 57.6797 73.2617 57.4844C73.6914 57.2891 74.0625 57.0352 74.375 56.7227C74.7266 56.3711 75.0781 55.9805 75.4297 55.5508C75.7812 55.082 76.0742 54.5156 76.3086 53.8516C76.543 53.1484 76.7188 52.3867 76.8359 51.5664ZM68.6914 46.8203C68.6914 47.0938 68.5547 47.2305 68.2812 47.2305C68.0469 47.2305 67.9297 47.1133 67.9297 46.8789C67.8516 45.6289 67.207 44.9648 65.9961 44.8867C65.8398 44.8867 65.7227 44.8281 65.6445 44.7109C65.6055 44.5547 65.625 44.418 65.7031 44.3008C65.7812 44.1836 65.8984 44.125 66.0547 44.125C67.7344 44.2031 68.6133 45.1016 68.6914 46.8203ZM69.8633 47.5234C69.9023 46.2344 69.5312 45.1602 68.75 44.3008C67.9688 43.4414 66.8555 42.9531 65.4102 42.8359C65.2539 42.8359 65.1562 42.7773 65.1172 42.6602C65.0781 42.5039 65.0781 42.3672 65.1172 42.25C65.1953 42.1328 65.3125 42.0742 65.4688 42.0742C67.1094 42.1914 68.3789 42.7578 69.2773 43.7734C70.2148 44.7891 70.6641 46.0391 70.625 47.5234C70.625 47.6797 70.5664 47.7969 70.4492 47.875C70.332 47.9141 70.1953 47.9141 70.0391 47.875C69.9219 47.7969 69.8633 47.6797 69.8633 47.5234ZM72.6172 48.2852C72.6172 48.4414 72.5586 48.5586 72.4414 48.6367C72.3242 48.6758 72.1875 48.6758 72.0312 48.6367C71.9141 48.5586 71.8555 48.4414 71.8555 48.2852C71.8555 45.9805 71.1719 44.1836 69.8047 42.8945C68.4766 41.5664 66.7969 40.9023 64.7656 40.9023C64.5312 40.9023 64.4141 40.7852 64.4141 40.5508C64.4141 40.2773 64.5312 40.1406 64.7656 40.1406C67.0312 40.1406 68.9062 40.8828 70.3906 42.3672C71.875 43.8125 72.6172 45.7852 72.6172 48.2852ZM71.9727 54.0273C71.582 54.6914 71.1133 55.2383 70.5664 55.668C70.0195 56.0586 69.4727 56.1562 68.9258 55.9609C68.2617 55.7656 67.3047 55.3359 66.0547 54.6719C64.8438 54.0078 63.8086 53.3438 62.9492 52.6797C62.0117 51.9375 61.1719 51.0977 60.4297 50.1602C59.8047 49.3398 59.2188 48.4414 58.6719 47.4648C58.2812 46.8008 57.9492 46.1953 57.6758 45.6484C57.4414 45.1016 57.2852 44.7109 57.207 44.4766L57.1484 44.1836C56.9531 43.6367 57.0508 43.0898 57.4414 42.543C57.8711 41.9961 58.418 41.5273 59.082 41.1367C59.6289 40.8633 60.0977 40.9414 60.4883 41.3711C60.957 41.957 61.3086 42.3867 61.543 42.6602C61.8164 43.0508 62.1094 43.5195 62.4219 44.0664C62.7734 44.7305 62.6953 45.2578 62.1875 45.6484L61.4844 46.1758C61.3672 46.2539 61.2891 46.3711 61.25 46.5273C61.2109 46.6445 61.1914 46.7617 61.1914 46.8789V46.9961C61.2305 47.1133 61.2695 47.2695 61.3086 47.4648C61.3867 47.6211 61.543 47.9531 61.7773 48.4609C62.0508 48.9297 62.3438 49.3789 62.6562 49.8086C63.0078 50.1992 63.4766 50.6094 64.0625 51.0391C64.6875 51.4688 65.3711 51.7812 66.1133 51.9766C66.4648 51.9766 66.7383 51.8594 66.9336 51.625L67.5195 50.9219C67.9102 50.4141 68.418 50.3359 69.043 50.6875C70.1367 51.3125 71.0352 51.957 71.7383 52.6211C72.168 53.0117 72.2461 53.4805 71.9727 54.0273Z" fill="white"/>
<defs>
<filter id="filter0_f" x="0" y="0" width="130" height="130" filterUnits="userSpaceOnUse" color-interpolation-filters="sRGB">
<feFlood flood-opacity="0" result="BackgroundImageFix"/>
<feBlend mode="normal" in="SourceGraphic" in2="BackgroundImageFix" result="shape"/>
<feGaussianBlur stdDeviation="15" result="effect1_foregroundBlur"/>
</filter>
</defs>
</svg>

<svg width="130" height="130" viewBox="0 0 130 130" fill="none" xmlns="http://www.w3.org/2000/svg"><path d="M51.707 114l3.598-9.338h-2.268l-2.576 7.182-2.59-7.182h-2.268L49.215 114h2.492zm6.149 0v-9.338h-1.988V114h1.988zm6.621 0c1.778 0 2.716-1.12 2.716-2.52 0-1.176-.798-2.142-1.792-2.296.882-.182 1.61-.966 1.61-2.142 0-1.246-.91-2.38-2.688-2.38H59.41V114h5.068zm-.588-5.6h-2.492v-2.03h2.492c.672 0 1.092.434 1.092 1.022 0 .588-.42 1.008-1.092 1.008zm.07 3.878h-2.562v-2.17h2.562c.784 0 1.204.504 1.204 1.092 0 .672-.448 1.078-1.204 1.078zM75.001 114v-1.75h-4.62v-2.114h4.522v-1.75H70.38v-1.974H75v-1.75h-6.608V114H75zm8.814 0l-2.1-3.556c1.008-.238 2.044-1.12 2.044-2.772 0-1.736-1.19-3.01-3.136-3.01h-4.368V114h1.988v-3.318h1.456L81.533 114h2.282zm-3.486-5.068h-2.086v-2.52h2.086c.798 0 1.4.476 1.4 1.26s-.602 1.26-1.4 1.26z" fill="#fff"/><g opacity=".5" filter="url(#filter0_f)"><circle cx="65" cy="65" r="35" fill="#9B51E0"/></g><circle cx="65" cy="50" r="40" fill="#9B51E0"/><path d="M76.016 37.68c1.289 1.133 2.207 2.93 2.753 5.39.547 2.422.606 5.43.176 9.024a11.36 11.36 0 01-.586 2.46 9.925 9.925 0 01-.82 1.934 7.665 7.665 0 01-1.113 1.407c-.39.43-.782.78-1.172 1.054a8.31 8.31 0 01-1.172.645c-.43.195-.781.351-1.055.468-.273.079-.586.157-.937.235a4.86 4.86 0 01-.528.117c-.273.117-.742.234-1.406.352-.664.117-1.719.234-3.164.351a20.12 20.12 0 01-4.336 0c-.82.899-1.406 1.543-1.758 1.934l-.468.468a8.993 8.993 0 01-.41.47 5.517 5.517 0 01-.41.35c-.157.196-.274.294-.352.294-.078 0-.215.039-.41.117-.196.078-.332.059-.41-.059a.87.87 0 01-.41-.234.87.87 0 01-.235-.41 5.575 5.575 0 01-.117-.41v-.293l-.059-.117.059-3.047h-.059a10.796 10.796 0 01-2.285-.938c-.703-.43-1.289-.898-1.758-1.406-.43-.508-.84-1.055-1.23-1.64a9.779 9.779 0 01-.82-1.876c-.157-.625-.313-1.27-.47-1.933a17.37 17.37 0 01-.234-1.934c0-.625-.02-1.23-.058-1.816 0-.586.02-1.114.058-1.582.078-4.258 1.055-7.325 2.93-9.2 1.172-1.054 2.734-1.835 4.688-2.343 1.953-.508 3.632-.762 5.039-.762h2.05c2.032.04 3.867.273 5.508.703 1.68.39 2.832.781 3.457 1.172.625.352 1.133.703 1.524 1.055zm.82 13.886c.39-3.047.352-5.625-.117-7.734-.43-2.148-1.192-3.691-2.285-4.629-.274-.273-.703-.566-1.29-.879-.585-.312-1.601-.625-3.046-.937-1.407-.313-2.97-.489-4.688-.528h-.762c-.312 0-.917.04-1.816.118-.86.039-1.7.136-2.52.293-.78.117-1.64.37-2.578.761-.937.352-1.699.82-2.285 1.407-1.601 1.562-2.441 4.12-2.52 7.675.04.703.04 1.465 0 2.285-.038.782.04 1.641.235 2.579.195.898.45 1.757.762 2.578.351.78.918 1.523 1.699 2.226.781.664 1.738 1.153 2.871 1.465-.039 3.086-.059 4.766-.059 5.04 0 .273.079.429.235.468.156.078.312.02.469-.176l3.984-4.629c1.21.078 2.441.078 3.691 0 1.25-.117 2.168-.234 2.754-.351.586-.117.996-.215 1.23-.293.04 0 .216-.04.528-.117a9.05 9.05 0 00.879-.235c.274-.117.625-.273 1.055-.469.43-.195.8-.449 1.113-.761.352-.352.703-.742 1.055-1.172.351-.469.644-1.035.879-1.7.234-.703.41-1.464.527-2.285zM68.69 46.82c0 .274-.136.41-.41.41-.234 0-.351-.117-.351-.351-.078-1.25-.723-1.914-1.934-1.992a.394.394 0 01-.352-.176.493.493 0 01.06-.41.394.394 0 01.35-.176c1.68.078 2.56.977 2.637 2.695zm1.172.703c.04-1.289-.332-2.363-1.113-3.222-.781-.86-1.894-1.348-3.34-1.465-.156 0-.254-.059-.293-.176a.728.728 0 010-.41.394.394 0 01.352-.176c1.64.117 2.91.684 3.808 1.7.938 1.015 1.387 2.265 1.348 3.75a.394.394 0 01-.176.351.728.728 0 01-.41 0 .394.394 0 01-.176-.352zm2.754.762a.394.394 0 01-.176.352.728.728 0 01-.41 0 .394.394 0 01-.175-.352c0-2.304-.684-4.101-2.051-5.39-1.328-1.329-3.008-1.993-5.04-1.993-.234 0-.35-.117-.35-.351 0-.274.116-.41.35-.41 2.266 0 4.141.742 5.626 2.226 1.484 1.446 2.226 3.418 2.226 5.918zm-.644 5.742a5.788 5.788 0 01-1.407 1.641c-.547.39-1.093.488-1.64.293-.664-.195-1.621-.625-2.871-1.29-1.211-.663-2.246-1.327-3.106-1.991a15.374 15.374 0 01-2.52-2.52 22.916 22.916 0 01-1.757-2.695c-.39-.664-.723-1.27-.996-1.817-.235-.546-.39-.937-.469-1.171l-.059-.293c-.195-.547-.097-1.094.293-1.641a5.787 5.787 0 011.641-1.406c.547-.274 1.016-.196 1.406.234.469.586.82 1.016 1.055 1.29.273.39.566.858.879 1.405.351.664.273 1.192-.234 1.582l-.704.528a.569.569 0 00-.234.351c-.04.117-.059.235-.059.352v.117c.04.117.078.273.118.469.078.156.234.488.468.996.274.469.567.918.88 1.348.35.39.82.8 1.406 1.23.624.43 1.308.742 2.05.938.352 0 .625-.118.82-.352l.586-.703c.391-.508.899-.586 1.524-.234 1.094.624 1.992 1.269 2.695 1.933.43.39.508.86.235 1.406z" fill="#fff"/><defs><filter id="filter0_f" x="0" y="0" width="130" height="130" filterUnits="userSpaceOnUse" color-interpolation-filters="sRGB"><feFlood flood-opacity="0" result="BackgroundImageFix"/><feBlend in="SourceGraphic" in2="BackgroundImageFix" result="shape"/><feGaussianBlur stdDeviation="15" result="effect1_foregroundBlur"/></filter></defs></svg>
